src/cards/diamonds_ace.svg

<svg version="1.1" id="Layer_1" xmlns="http://www.w3.org/2000/svg" xmlns:xlink="http://www.w3.org/1999/xlink" x="0px" y="0px"
	 width="100%" viewBox="0 0 336 496" enable-background="new 0 0 336 496" xml:space="preserve">
<path fill="currentColor" opacity="1.000000" stroke="none" 
	d="
M337.000000,448.625000 
	C332.867401,449.575775 330.816223,452.105469 329.566345,455.991638 
	C326.258911,466.275116 322.600037,476.445038 319.185028,486.694794 
	C318.203766,489.639862 316.965271,491.537354 313.305908,491.479187 
	C309.919403,491.425323 308.217010,490.249847 307.142578,487.070099 
	C303.684296,476.835236 299.988495,466.680664 296.381683,456.496033 
	C295.391998,453.701416 294.837738,450.650574 291.404846,449.523834 
	C289.911621,449.033722 289.579956,447.656586 289.974182,446.224823 
	C290.371155,444.783173 291.677307,444.786224 292.820496,444.766724 
	C296.480103,444.704193 300.145355,444.601288 303.799438,444.744232 
	C305.629883,444.815857 308.167603,443.795624 309.017731,446.326691 
	C310.064545,449.443573 306.589050,449.258942 305.028046,450.941498 
	C305.595947,454.128632 305.436005,457.678040 310.453766,458.039764 
	C321.617249,458.844513 322.534851,458.497711 324.053345,451.386108 
	C323.853333,450.142944 322.703094,449.989288 321.848969,449.613739 
	C320.471375,449.007996 319.622040,448.191040 319.913910,446.585693 
	C320.237335,444.806732 321.683044,444.710510 322.990295,444.774536 
	C327.428467,444.991882 331.945312,443.847961 336.651001,445.752258 
	C337.000000,446.750000 337.000000,447.500000 337.000000,448.625000 
M313.657104,478.009583 
	C314.095886,478.583588 314.908142,479.073975 315.247955,478.390137 
	C317.504059,473.850494 319.277191,469.151611 319.647522,463.611908 
	C315.957794,463.542328 312.879059,462.791840 309.501312,464.155060 
	C309.872742,468.921936 311.956635,473.096497 313.657104,478.009583 
z"/>
<path fill="currentColor" opacity="1.000000" stroke="none" 
	d="
M109.315247,254.713440 
	C107.308861,253.246170 105.138176,252.530487 103.737404,249.629181 
	C131.744324,231.327423 155.050385,207.996063 174.057770,178.734680 
	C192.948334,207.896027 216.251617,231.221085 245.452805,250.237030 
	C216.204102,269.098938 193.106415,292.431305 173.995773,321.581390 
	C156.417435,294.493073 135.261139,272.475769 109.315247,254.713440 
z"/>
<path fill="currentColor" opacity="1.000000" stroke="none" 
	d="
M47.939091,33.200195 
	C49.463245,37.481079 50.851196,41.395988 52.211407,45.320515 
	C52.984791,47.551929 53.795723,49.743355 56.259800,50.681850 
	C57.966084,51.331722 58.512135,52.613342 58.059929,54.263943 
	C57.614155,55.891068 56.115788,55.935658 54.808369,55.961315 
	C51.317566,56.029827 47.817753,56.121468 44.335217,55.940430 
	C42.373123,55.838432 39.576328,56.878124 38.925804,53.859543 
	C38.252869,50.736977 41.580940,51.128143 43.415356,49.861607 
	C42.342384,46.039532 42.443420,42.078793 36.446774,42.187950 
	C25.320637,42.390491 25.315174,42.090363 23.899481,49.584759 
	C24.391266,50.975418 25.876869,50.541389 26.818193,51.123486 
	C27.964893,51.832569 28.318396,52.839527 28.052883,54.104626 
	C27.807114,55.275642 26.870432,55.770420 25.866419,55.782852 
	C21.883947,55.832142 17.898678,55.808453 13.917460,55.700542 
	C12.890001,55.672695 12.050991,55.055866 11.883207,53.867718 
	C11.700915,52.576836 12.029092,51.319500 13.324542,51.052238 
	C17.034477,50.286854 17.549786,47.163769 18.504536,44.389095 
	C22.070778,34.024960 25.610098,23.651260 29.087736,13.257133 
	C30.012259,10.493876 31.276114,8.721686 34.654659,8.687118 
	C38.059040,8.652284 39.777824,9.933702 40.817696,13.106727 
	C42.989582,19.733925 45.449608,26.266693 47.939091,33.200195 
M29.003138,32.296185 
	C28.594925,33.857487 27.570343,35.913059 29.901491,36.446358 
	C32.572365,37.057369 35.490273,37.498493 38.079147,35.909012 
	C38.448708,35.682114 38.619743,34.608875 38.435310,34.084743 
	C36.843651,29.561422 35.933376,24.748623 32.947468,19.853630 
	C31.525656,24.315477 30.373526,27.931026 29.003138,32.296185 
z"/>
<path fill="currentColor" opacity="1.000000" stroke="none" 
	d="
M32.769600,107.032913 
	C28.131117,100.494514 22.586309,95.311646 15.741104,90.456383 
	C22.738943,84.985962 28.569010,79.247086 33.939861,72.087128 
	C39.617626,78.951553 44.994793,85.168137 52.623360,90.224106 
	C45.362736,95.159355 39.918289,100.642548 35.288937,106.927208 
	C34.745678,107.664719 33.859417,107.668945 32.769600,107.032913 
z"/>
<path fill="currentColor" opacity="1.000000" stroke="none" 
	d="
M316.753296,395.187927 
	C321.089447,401.125214 326.334869,405.673981 332.526001,410.220642 
	C325.137329,415.351318 319.385712,420.995544 314.289856,428.304840 
	C308.392151,421.852631 303.567963,415.079346 295.012115,410.610992 
	C302.424988,405.405823 307.842468,399.928589 312.578522,393.756561 
	C314.148193,391.710907 315.423035,393.727631 316.753296,395.187927 
z"/>
</svg>

<svg xmlns="http://www.w3.org/2000/svg" viewBox="0 0 336 496" xml:space="preserve"><path fill="currentColor" d="M337 448.625c-4.133.95-6.184 3.48-7.434 7.367-3.307 10.283-6.966 20.453-10.381 30.703-.981 2.945-2.22 4.842-5.88 4.784-3.386-.054-5.088-1.23-6.162-4.409-3.459-10.235-7.155-20.39-10.761-30.574-.99-2.795-1.544-5.845-4.977-6.972-1.493-.49-1.825-1.867-1.43-3.3.396-1.44 1.702-1.438 2.845-1.457 3.66-.063 7.325-.166 10.98-.023 1.83.072 4.368-.948 5.218 1.583 1.047 3.117-2.429 2.932-3.99 4.614.568 3.188.408 6.737 5.426 7.099 11.163.805 12.08.458 13.6-6.654-.2-1.243-1.35-1.397-2.205-1.772-1.378-.606-2.227-1.423-1.935-3.028.323-1.78 1.769-1.875 3.076-1.811 4.438.217 8.955-.927 13.661.977.349.998.349 1.748.349 2.873m-23.343 29.385c.439.574 1.251 1.064 1.591.38 2.256-4.54 4.03-9.238 4.4-14.778-3.69-.07-6.769-.82-10.147.543.372 4.767 2.456 8.941 4.156 13.855zM109.315 254.713c-2.006-1.467-4.177-2.183-5.578-5.084 28.007-18.302 51.313-41.633 70.32-70.894 18.891 29.161 42.195 52.486 71.396 71.502-29.249 18.862-52.347 42.194-71.457 71.344-17.579-27.088-38.735-49.105-64.68-66.868zM47.94 33.2c1.523 4.281 2.911 8.196 4.271 12.12.774 2.232 1.585 4.423 4.049 5.362 1.706.65 2.252 1.931 1.8 3.582-.446 1.627-1.944 1.672-3.252 1.697-3.49.069-6.99.16-10.473-.02-1.962-.103-4.759.937-5.41-2.081-.672-3.123 2.656-2.732 4.49-3.998-1.073-3.822-.972-7.783-6.968-7.674-11.126.202-11.132-.098-12.548 7.397.492 1.39 1.978.956 2.92 1.538 1.146.71 1.5 1.717 1.234 2.982-.246 1.17-1.183 1.665-2.187 1.678-3.982.05-7.967.025-11.949-.082-1.027-.028-1.866-.645-2.034-1.833-.182-1.291.146-2.549 1.442-2.816 3.71-.765 4.225-3.888 5.18-6.663a3852.829 3852.829 0 0 0 10.583-31.132c.924-2.763 2.188-4.535 5.567-4.57 3.404-.035 5.123 1.247 6.163 4.42 2.172 6.627 4.632 13.16 7.121 20.093m-18.936-.904c-.408 1.561-1.433 3.617.898 4.15 2.671.611 5.59 1.052 8.178-.537.37-.227.54-1.3.356-1.824-1.591-4.524-2.502-9.336-5.488-14.231a2867.807 2867.807 0 0 0-3.944 12.442zM32.77 107.033c-4.639-6.538-10.184-11.721-17.029-16.577 6.998-5.47 12.828-11.209 18.199-18.369 5.678 6.865 11.055 13.081 18.683 18.137-7.26 4.935-12.705 10.419-17.334 16.703-.543.738-1.43.742-2.52.106zM316.753 395.188c4.336 5.937 9.582 10.486 15.773 15.033-7.389 5.13-13.14 10.775-18.236 18.084-5.898-6.452-10.722-13.226-19.278-17.694 7.413-5.205 12.83-10.682 17.567-16.854 1.57-2.046 2.844-.03 4.174 1.43z"/></svg>
